labs/src/images/global/monumlogo.svg

<svg width="41" height="85" viewBox="0 0 41 85" fill="none" xmlns="http://www.w3.org/2000/svg">
<path d="M39.8227 18.6523C39.4975 18.8464 39.2822 18.985 39.0577 19.1144C38.8333 19.2437 38.7279 19.2853 38.5126 19.3916C34.463 14.859 29.6483 11.537 23.803 9.846C18.1059 8.20839 12.0802 8.12389 6.34018 9.60112L5.95996 8.21503C12.0573 6.64874 18.1088 6.45931 24.142 8.21503C30.3083 9.98578 35.7838 13.6303 39.8227 18.6523Z" fill="white"/>
<path d="M6.71104 13.8749C18.8232 10.4282 30.5323 15.1594 36.4555 23.2357C35.5393 23.9796 35.5393 23.9796 34.8109 23.2357C30.5323 18.8926 25.4932 16.0142 19.4829 14.9469C15.6885 14.2575 11.7964 14.3313 8.03037 15.164C6.91261 15.4089 6.90803 15.3904 6.70646 14.2723C6.69612 14.14 6.69766 14.007 6.71104 13.8749Z" fill="white"/>
<path d="M32.0805 27.0657L30.8803 27.8096C24.7189 21.0824 17.1098 19.3406 8.37841 21.0085L7.9707 19.7425C14.9567 16.5868 28.2966 20.6342 32.0805 27.0657Z" fill="white"/>
<path d="M15.3753 35C16.1707 35.4527 16.8392 35.8058 17.4052 36.2222C18.5355 37.0106 19.4498 38.0346 20.0742 39.2116C20.6986 40.3886 21.0156 41.6855 20.9994 42.9972C20.9833 44.3089 20.6345 45.5987 19.9812 46.7621C19.328 47.9256 18.3887 48.93 17.2393 49.6942C17.0254 49.8223 16.8521 50.001 16.7371 50.2118C16.6222 50.4226 16.5699 50.658 16.5855 50.8938C16.5855 60.794 16.5855 70.6943 16.5855 80.5945C16.6019 81.1672 16.4918 81.737 16.2619 82.2688C16.0319 82.8005 15.687 83.283 15.2485 83.6863C14.7275 84.1888 14.0822 84.5656 13.3686 84.7842C12.655 85.0027 11.8947 85.0563 11.1537 84.9403C10.4127 84.8243 9.7134 84.5423 9.11658 84.1186C8.51977 83.695 8.04347 83.1426 7.72905 82.5094C7.47626 81.9274 7.35662 81.3031 7.37772 80.676C7.32242 70.7169 7.28826 60.7699 7.27525 50.8349C7.29636 50.5873 7.24382 50.339 7.12337 50.1171C7.00292 49.8952 6.81917 49.7082 6.59211 49.5765C5.38094 48.7259 4.41971 47.6064 3.79682 46.3211C3.17392 45.0357 2.90934 43.6257 3.02741 42.2207C3.14548 40.8157 3.64241 39.4607 4.4725 38.2805C5.30259 37.1002 6.43921 36.1325 7.77785 35.4663C7.99255 35.3576 8.22189 35.2761 8.58298 35.1222V43.5648C8.90991 43.592 9.12461 43.6237 9.33931 43.6237C11.1008 43.6237 12.8672 43.601 14.6288 43.6237C15.2485 43.6237 15.3851 43.4335 15.3802 42.8994C15.3802 40.5816 15.3802 38.2639 15.3802 35.9461L15.3753 35ZM14.3701 79.92C14.3773 79.3197 14.127 78.7414 13.6745 78.3122C13.222 77.8831 12.6043 77.6383 11.9572 77.6317C11.6368 77.6284 11.3189 77.6837 11.0215 77.7944C10.7241 77.9052 10.4532 78.0691 10.2242 78.277C9.76157 78.6968 9.49769 79.2699 9.49058 79.8702C9.48346 80.4705 9.73368 81.0488 10.1862 81.478C10.6387 81.9071 11.2565 82.1519 11.9035 82.1585C12.5506 82.1651 13.174 81.933 13.6366 81.5132C14.0992 81.0934 14.363 80.5203 14.3701 79.92Z" fill="white"/>
</svg>

<?xml version="1.0" encoding="utf-8"?>
<!-- Generator: Adobe Illustrator 24.0.0, SVG Export Plug-In . SVG Version: 6.00 Build 0)  -->
<svg version="1.1" id="Layer_1" xmlns="http://www.w3.org/2000/svg" xmlns:xlink="http://www.w3.org/1999/xlink" x="0px" y="0px"
	 viewBox="0 0 41 85" style="enable-background:new 0 0 41 85;" xml:space="preserve">
<path d="M39.8,18.7c-0.3,0.2-0.5,0.3-0.8,0.5c-0.2,0.1-0.3,0.2-0.5,0.3c-4-4.5-8.9-7.9-14.7-9.5C18.1,8.2,12.1,8.1,6.3,9.6L6,8.2
	c6.1-1.6,12.1-1.8,18.2,0C30.3,10,35.8,13.6,39.8,18.7z"/>
<path d="M6.7,13.9c12.1-3.4,23.8,1.3,29.7,9.4c-0.9,0.7-0.9,0.7-1.6,0c-4.3-4.3-9.3-7.2-15.3-8.3c-3.8-0.7-7.7-0.6-11.5,0.2
	c-1.1,0.2-1.1,0.2-1.3-0.9C6.7,14.1,6.7,14,6.7,13.9z"/>
<path d="M32.1,27.1l-1.2,0.7c-6.2-6.7-13.8-8.5-22.5-6.8L8,19.7C15,16.6,28.3,20.6,32.1,27.1z"/>
<path d="M15.4,35c0.8,0.5,1.5,0.8,2,1.2c1.1,0.8,2,1.8,2.7,3c0.6,1.2,0.9,2.5,0.9,3.8c0,1.3-0.4,2.6-1,3.8c-0.7,1.2-1.6,2.2-2.7,2.9
	c-0.2,0.1-0.4,0.3-0.5,0.5c-0.1,0.2-0.2,0.4-0.2,0.7c0,9.9,0,19.8,0,29.7c0,0.6-0.1,1.1-0.3,1.7c-0.2,0.5-0.6,1-1,1.4
	c-0.5,0.5-1.2,0.9-1.9,1.1c-0.7,0.2-1.5,0.3-2.2,0.2s-1.4-0.4-2-0.8c-0.6-0.4-1.1-1-1.4-1.6c-0.3-0.6-0.4-1.2-0.4-1.8
	c-0.1-10-0.1-19.9-0.1-29.8c0-0.2,0-0.5-0.2-0.7s-0.3-0.4-0.5-0.5c-1.2-0.9-2.2-2-2.8-3.3C3.2,45,2.9,43.6,3,42.2
	c0.1-1.4,0.6-2.8,1.4-3.9c0.8-1.2,2-2.1,3.3-2.8c0.2-0.1,0.4-0.2,0.8-0.3v8.4c0.3,0,0.5,0.1,0.8,0.1c1.8,0,3.5,0,5.3,0
	c0.6,0,0.8-0.2,0.8-0.7c0-2.3,0-4.6,0-7L15.4,35z M14.4,79.9c0-0.6-0.2-1.2-0.7-1.6c-0.5-0.4-1.1-0.7-1.7-0.7
	c-0.3,0-0.6,0.1-0.9,0.2c-0.3,0.1-0.6,0.3-0.8,0.5c-0.5,0.4-0.7,1-0.7,1.6c0,0.6,0.2,1.2,0.7,1.6c0.5,0.4,1.1,0.7,1.7,0.7
	c0.6,0,1.3-0.2,1.7-0.6C14.1,81.1,14.4,80.5,14.4,79.9z"/>
</svg>
